assets/icons/kofi.svg

<svg xmlns="http://www.w3.org/2000/svg" xml:space="preserve" style="fill-rule:evenodd;clip-rule:evenodd;stroke-linecap:round;stroke-linejoin:round;stroke-miterlimit:1.5" viewBox="0 0 365 305"><path d="M247.2 383c5.5 1.6 11.7 6.8 14.6 12.4 2.1 4 2.7 6.9 3.1 15l.6 10.1 16.5.6c13.5.4 17.5.9 21.8 2.6 7.7 3.1 14.2 7.6 20.5 14.1 10.1 10.6 14.9 23.7 15 40.7.2 26.9-13.1 46.6-37.5 55.7-7.5 2.7-9.7 3.1-22.3 3.4l-14 .4-.6 14.8c-1 25.5-5.7 38-19.4 51.8-6.6 6.7-9.7 8.9-17.5 12.8-15.1 7.4-17.3 7.6-75.1 7.6-57.2 0-59.6-.2-74.4-7.5-19.9-9.8-32.7-27.1-36.4-49-.9-5.1-1.2-28.7-.9-88 .3-76.8.4-81.2 2.2-84.5 3.5-6.6 8.7-11 15.6-13.1 4-1.2 183.9-1.1 188.2.1ZM265 521.2l13.8-.4c12.9-.3 14.1-.5 20.4-3.5 15.7-7.4 23.8-20.5 23.8-38.2 0-16.1-6.1-28.5-17.8-36-6.9-4.4-14.7-6.1-28.4-6.1H265v84.2ZM63.5 398.9c-1.1.5-2.8 1.8-3.8 2.8-1.6 1.9-1.7 6.8-1.5 86l.3 83.9 3.9 8c7.1 14.4 20.3 24.5 36.3 27.9 10 2.1 98.7 2.1 108.8 0 19.2-4.1 34.3-18 39-36 1.3-5.1 1.5-17.3 1.5-86.5 0-89.5.4-84-6.8-86-4.5-1.2-174.7-1.3-177.7-.1Zm67.5 42.3c5.5 1.7 13.1 5.7 17.7 9.4 2.3 1.9 4.4 3.4 4.6 3.4.3 0 2.5-1.6 4.9-3.7 2.3-2 7.2-5 10.8-6.7 5.9-2.8 7.4-3.1 16.5-3.1s10.6.3 16.6 3.1c22.2 10.5 31.2 37.9 19.9 60.4-3.1 6.2-61.2 64.6-65.7 66.1-6.6 2.1-8.5.7-40.2-31-24.5-24.4-30.2-30.6-32.4-35.2-8.3-17.7-5.5-37.2 7.4-51.3 10.3-11.3 25.6-15.6 39.9-11.4Zm-15.5 15.7c-11.3 2.9-18.4 12.4-19.3 25.6-.9 13.6 1 15.9 48.1 61.5l8.7 8.5 26-26c28.7-28.6 31.1-31.9 31.2-41.8.2-15.8-10.5-27.7-24.8-27.7-8.3.1-13.1 2.6-21.8 11.5-9.7 10-10.9 10-20.2.4-9.9-10.2-19.3-14.2-27.9-12Z" style="stroke:#fff;stroke-width:1px" transform="translate(0 -348)"/></svg>

<?xml version="1.0" encoding="UTF-8" standalone="no"?>
<!DOCTYPE svg PUBLIC "-//W3C//DTD SVG 1.1//EN" "http://www.w3.org/Graphics/SVG/1.1/DTD/svg11.dtd">
<svg width="100%" height="100%" viewBox="0 0 365 305" version="1.1" xmlns="http://www.w3.org/2000/svg" xmlns:xlink="http://www.w3.org/1999/xlink" xml:space="preserve" xmlns:serif="http://www.serif.com/" style="fill-rule:evenodd;clip-rule:evenodd;stroke-linecap:round;stroke-linejoin:round;stroke-miterlimit:1.5;">
    <g transform="matrix(1,0,0,1,0,-348)">
        <g>
            <path d="M247.2,383C252.7,384.6 258.9,389.8 261.8,395.4C263.9,399.4 264.5,402.3 264.9,410.4L265.5,420.5L282,421.1C295.5,421.5 299.5,422 303.8,423.7C311.5,426.8 318,431.3 324.3,437.8C334.4,448.4 339.2,461.5 339.3,478.5C339.5,505.4 326.2,525.1 301.8,534.2C294.3,536.9 292.1,537.3 279.5,537.6L265.5,538L264.9,552.8C263.9,578.3 259.2,590.8 245.5,604.6C238.9,611.3 235.8,613.5 228,617.4C212.9,624.8 210.7,625 152.9,625C95.7,625 93.3,624.8 78.5,617.5C58.6,607.7 45.8,590.4 42.1,568.5C41.2,563.4 40.9,539.8 41.2,480.5C41.5,403.7 41.6,399.3 43.4,396C46.9,389.4 52.1,385 59,382.9C63,381.7 242.9,381.8 247.2,383ZM265,521.2L278.8,520.8C291.7,520.5 292.9,520.3 299.2,517.3C314.9,509.9 323,496.8 323,479.1C323,463 316.9,450.6 305.2,443.1C298.3,438.7 290.5,437 276.8,437L265,437L265,521.2ZM63.5,398.9C62.4,399.4 60.7,400.7 59.7,401.7C58.1,403.6 58,408.5 58.2,487.7L58.5,571.6L62.4,579.6C69.5,594 82.7,604.1 98.7,607.5C108.7,609.6 197.4,609.6 207.5,607.5C226.7,603.4 241.8,589.5 246.5,571.5C247.8,566.4 248,554.2 248,485C248,395.5 248.4,401 241.2,399C236.7,397.8 66.5,397.7 63.5,398.9ZM131,441.2C136.5,442.9 144.1,446.9 148.7,450.6C151,452.5 153.1,454 153.3,454C153.6,454 155.8,452.4 158.2,450.3C160.5,448.3 165.4,445.3 169,443.6C174.9,440.8 176.4,440.5 185.5,440.5C194.6,440.5 196.1,440.8 202.1,443.6C224.3,454.1 233.3,481.5 222,504C218.9,510.2 160.8,568.6 156.3,570.1C149.7,572.2 147.8,570.8 116.1,539.1C91.6,514.7 85.9,508.5 83.7,503.9C75.4,486.2 78.2,466.7 91.1,452.6C101.4,441.3 116.7,437 131,441.2ZM115.5,456.9C104.2,459.8 97.1,469.3 96.2,482.5C95.3,496.1 97.2,498.4 144.3,544L153,552.5L179,526.5C207.7,497.9 210.1,494.6 210.2,484.7C210.4,468.9 199.7,457 185.4,457C177.1,457.1 172.3,459.6 163.6,468.5C153.9,478.5 152.7,478.5 143.4,468.9C133.5,458.7 124.1,454.7 115.5,456.9Z" style="fill:white;stroke:white;stroke-width:1px;"/>
        </g>
    </g>
</svg>
